icon-svg/amc.svg

<svg xmlns="http://www.w3.org/2000/svg" fill="#44739e" viewBox="0 0 24 24"><path d="M20.337 11.74v-1.629h-.821v1.629h-1.659v.81h1.659v1.629h.821V12.55H22v-.81zm-4.404-1.121a1.316 1.316 0 0 1 1.077.588l.059.082h.968L17.891 11a2.22 2.22 0 0 0-1.958-1.238 2.316 2.316 0 0 0-2.233 2.379 2.316 2.316 0 0 0 2.238 2.382 2.218 2.218 0 0 0 1.959-1.243l.145-.29h-.968l-.059.082a1.316 1.316 0 0 1-1.077.588 1.453 1.453 0 0 1-1.367-1.523 1.588 1.588 0 0 1 .45-1.125 1.29 1.29 0 0 1 .912-.393m3.575 5.87H2.833V7.797h16.675v1.455h.833v-2.28H2v10.342h18.341v-2.276h-.833ZM7.1 11.6c-.279.011-.6.011-.642.011a2.89 2.89 0 0 0-1.878.573 1.37 1.37 0 0 0-.444 1.044 1.167 1.167 0 0 0 .539 1.036 1.993 1.993 0 0 0 1.071.267 3.49 3.49 0 0 0 1.237-.231 3 3 0 0 0 .365-.186l.006.31h.86v-2.529c0-.166-.007-.393-.015-.5-.037-.616-.352-1.648-2.048-1.648a1.8 1.8 0 0 0-1.879 1.31l-.092.383h.885l.066-.224c.029-.1.217-.609 1.024-.609s1.144.243 1.182.842c0 .043 0 .089.006.14h-.239Zm-1.923 1.21a2.148 2.148 0 0 1 1.277-.343h.079l.822-.013c0 .171 0 .357-.007.551v.018a2.23 2.23 0 0 1-.7.484 2.157 2.157 0 0 1-1.5.034.333.333 0 0 1-.148-.313.515.515 0 0 1 .177-.418m8.313 1.622V9.858h-.929l-1.521 3.286-1.525-3.286H8.59v4.574h.863v-2.647l1.226 2.647h.715l1.225-2.647v2.647z"/></svg>

<?xml version="1.0" encoding="UTF-8"?>
<svg width="24px" fill="#44739e" height="24px" viewBox="0 0 24 24" version="1.1" xmlns="http://www.w3.org/2000/svg" xmlns:xlink="http://www.w3.org/1999/xlink">
            <path d="m 20.337,11.74 v -1.629 h -0.821 v 1.629 h -1.659 v 0.81 h 1.659 v 1.629 h 0.821 V 12.55 H 22 v -0.81 z m -4.404,-1.121 a 1.316,1.316 0 0 1 1.077,0.588 l 0.059,0.082 h 0.968 L 17.891,11 a 2.22,2.22 0 0 0 -1.958,-1.238 2.316,2.316 0 0 0 -2.233,2.379 2.316,2.316 0 0 0 2.238,2.382 2.218,2.218 0 0 0 1.959,-1.243 l 0.145,-0.29 h -0.968 l -0.059,0.082 a 1.316,1.316 0 0 1 -1.077,0.588 1.453,1.453 0 0 1 -1.367,-1.523 1.588,1.588 0 0 1 0.45,-1.125 1.289,1.289 0 0 1 0.912,-0.393 z m 3.575,5.87 H 2.833 V 7.797 h 16.675 v 1.455 h 0.833 V 6.972 H 2 V 17.314 H 20.341 V 15.038 H 19.508 Z M 7.1,11.6 C 6.821,11.611 6.5,11.611 6.458,11.611 A 2.89,2.89 0 0 0 4.58,12.184 1.369,1.369 0 0 0 4.136,13.228 1.167,1.167 0 0 0 4.675,14.264 1.993,1.993 0 0 0 5.746,14.531 3.487,3.487 0 0 0 6.983,14.3 3.044,3.044 0 0 0 7.348,14.114 l 0.006,0.31 h 0.86 V 12.08 12.074 c 0,-0.028 0,-0.1 0,-0.179 0,-0.166 -0.007,-0.393 -0.015,-0.5 C 8.162,10.779 7.847,9.747 6.151,9.747 a 1.8,1.8 0 0 0 -1.879,1.31 L 4.18,11.44 h 0.885 l 0.066,-0.224 c 0.029,-0.1 0.217,-0.609 1.024,-0.609 0.807,0 1.144,0.243 1.182,0.842 0,0.043 0,0.089 0.006,0.14 H 7.104 Z m -1.923,1.21 a 2.148,2.148 0 0 1 1.277,-0.343 h 0.065 0.014 l 0.822,-0.013 c 0,0.171 0,0.357 -0.007,0.551 v 0.018 a 2.228,2.228 0 0 1 -0.7,0.484 2.157,2.157 0 0 1 -1.5,0.034 A 0.333,0.333 0 0 1 5,13.228 0.515,0.515 0 0 1 5.177,12.81 Z m 8.313,1.622 V 9.858 H 12.561 L 11.04,13.144 9.515,9.858 H 8.59 v 4.574 h 0.863 v -2.647 l 1.226,2.647 h 0.715 l 1.225,-2.647 v 2.647 z"/>

</svg>
